X: 10583
T: IRISH REEL
R: reel
B: K\"ohler's Violin Repository, v.1, 1885 p.58 #3
F: http://www.archive.org/details/klersviolinrepos01edin
Z: 2011 John Chambers <jc:trillian.mit.edu>
M: C|
L: 1/8
K: G
vgue |\
(dB)Ac (BG)GA | (Bc)BA B2ge | (dB)Ac (BG)GB | (Aa)a^g a2 :|
veuf |\
(ga)gf (ga)ba | (gf)ga (bg)ef | (ga)gf (ga)bg | (ea)a^g a2ef |
(=ga)gf (ga)ba | (gf)ga (bg)eg | (ba)gf (gf)ed | (ea)a^g a2 "^D.C."|]

%%sep 2 1 500

